dde/zh_CN/icon/tips.svg

<?xml version="1.0" encoding="iso-8859-1"?>
<!-- Generator: Adobe Illustrator 18.0.0, SVG Export Plug-In . SVG Version: 6.00 Build 0)  -->
<!DOCTYPE svg PUBLIC "-//W3C//DTD SVG 1.1//EN" "http://www.w3.org/Graphics/SVG/1.1/DTD/svg11.dtd">
<svg version="1.1" id="&#x56FE;&#x5C42;_1" xmlns="http://www.w3.org/2000/svg" xmlns:xlink="http://www.w3.org/1999/xlink" x="0px"
	 y="0px" viewBox="0 0 46 20" enable-background="new 0 0 46 20" xml:space="preserve">
<g>
	<g>
		<path fill="#727171" d="M22.137,14.614v-3c-0.5,0-1.078,0.016-1.734,0.047v-0.891c0.75,0.031,1.313,0.047,1.688,0.047h1.219
			c0.406,0,0.859-0.016,1.359-0.047v0.891c-0.594-0.031-1.125-0.047-1.594-0.047v2.906c0.719-0.094,1.344-0.188,1.875-0.281
			c-0.031,0.219-0.047,0.5-0.047,0.844c-1.094,0.125-1.961,0.242-2.602,0.352s-1.227,0.242-1.758,0.398
			c-0.125-0.313-0.281-0.641-0.469-0.984C20.512,14.817,21.199,14.739,22.137,14.614z M26.402,6.974h4.453
			c-0.031,0.313-0.047,0.641-0.047,0.984c0,0.313,0.016,0.641,0.047,0.984h-0.984V7.63h-8.438v1.359h-0.984
			c0.031-0.281,0.047-0.609,0.047-0.984s-0.016-0.719-0.047-1.031h4.828c-0.094-0.438-0.219-0.828-0.375-1.172
			c0.344-0.063,0.656-0.156,0.938-0.281C26.027,5.927,26.215,6.411,26.402,6.974z M22.887,8.849c0.563-0.219,1.078-0.469,1.547-0.75
			c0.156,0.281,0.375,0.547,0.656,0.797c-0.469,0.156-0.992,0.344-1.57,0.563s-1.227,0.469-1.945,0.75
			c-0.125-0.344-0.297-0.609-0.516-0.797C21.715,9.255,22.324,9.067,22.887,8.849z M28.91,15.388
			c0.172-0.141,0.32-0.758,0.445-1.852h-2.203c-0.469,0-0.891,0.016-1.266,0.047c0.219-1.063,0.344-1.828,0.375-2.297
			c-0.375,0-0.719,0.016-1.031,0.047v-0.891c0.281,0.031,0.734,0.047,1.359,0.047h2.625c0.688,0,1.188-0.016,1.5-0.047v0.891
			c-0.344-0.031-0.844-0.047-1.5-0.047h-1.969l-0.234,1.5h3.422c-0.156,1.25-0.297,2.141-0.422,2.672s-0.398,0.836-0.82,0.914
			s-0.867,0.148-1.336,0.211c-0.063-0.375-0.25-0.719-0.563-1.031C28.199,15.583,28.738,15.528,28.91,15.388z M26.684,8.802
			c0.156-0.219,0.281-0.453,0.375-0.703c1.094,0.375,2.219,0.828,3.375,1.359c-0.156,0.188-0.328,0.453-0.516,0.797
			C29.043,9.755,27.965,9.271,26.684,8.802z"/>
		<path fill="#727171" d="M33.668,9.458v6.844h-1.031c0.031-0.594,0.047-1.156,0.047-1.688V9.692c0-0.531-0.016-1.031-0.047-1.5
			h1.078C33.684,8.661,33.668,9.083,33.668,9.458z M35.543,7.255c-0.281,0.188-0.594,0.375-0.938,0.563
			c-0.375-0.594-0.766-1.172-1.172-1.734c0.344-0.188,0.656-0.375,0.938-0.563C34.746,6.114,35.137,6.692,35.543,7.255z
			 M42.387,6.411c-0.031,0.625-0.047,1.234-0.047,1.828v6.516c0,0.75-0.203,1.188-0.609,1.313s-0.891,0.219-1.453,0.281
			c-0.063-0.344-0.203-0.703-0.422-1.078c0.625,0,1.031-0.039,1.219-0.117s0.281-0.273,0.281-0.586V7.208H38.59
			c-0.75,0-1.422,0.047-2.016,0.141V6.364c1.094,0.031,1.766,0.047,2.016,0.047H42.387z"/>
	</g>
	<path id="light-bulb-11-icon" fill="#727171" d="M13.101,18.026l3.41-2.267c-0.383,1.466-0.367,1.677-0.716,1.909l-0.688,0.458
		C14.749,18.363,14.546,18.258,13.101,18.026z M15.53,14.234l-3.457,2.299c-0.254,0.169-0.323,0.512-0.154,0.765
		s0.512,0.323,0.765,0.154l3.457-2.299c0.254-0.169,0.323-0.512,0.154-0.765C16.127,14.134,15.784,14.065,15.53,14.234z
		 M13.602,3.782c1.872,2.815,0.743,6.011,1.718,8.413c0.182,0.449,0.045,0.961-0.358,1.23l-3.458,2.3
		c-0.403,0.268-0.929,0.197-1.273-0.145c-1.838-1.828-5.223-2.023-7.095-4.838c-2.16-3.247-0.734-6.773,1.882-8.513
		C7.636,0.489,11.444,0.537,13.602,3.782z M6.757,4.498L5.893,3.605C4.099,5.458,3.986,7.74,4.844,9.725l1.155-0.456
		C5.473,7.936,5.241,6.269,6.757,4.498z"/>
</g>
</svg>

<?xml version="1.0" encoding="UTF-8" standalone="no"?>
<svg
   xmlns:dc="http://purl.org/dc/elements/1.1/"
   xmlns:cc="http://creativecommons.org/ns#"
   xmlns:rdf="http://www.w3.org/1999/02/22-rdf-syntax-ns#"
   xmlns:svg="http://www.w3.org/2000/svg"
   xmlns="http://www.w3.org/2000/svg"
   xmlns:sodipodi="http://sodipodi.sourceforge.net/DTD/sodipodi-0.dtd"
   xmlns:inkscape="http://www.inkscape.org/namespaces/inkscape"
   width="44"
   height="20"
   viewBox="0 0 44 20"
   version="1.1"
   id="svg12"
   sodipodi:docname="tips.svg"
   inkscape:version="0.92.1 r15371">
  <metadata
     id="metadata16">
    <rdf:RDF>
      <cc:Work
         rdf:about="">
        <dc:format>image/svg+xml</dc:format>
        <dc:type
           rdf:resource="http://purl.org/dc/dcmitype/StillImage" />
        <dc:title>img_upload</dc:title>
      </cc:Work>
    </rdf:RDF>
  </metadata>
  <sodipodi:namedview
     pagecolor="#ffffff"
     bordercolor="#666666"
     borderopacity="1"
     objecttolerance="10"
     gridtolerance="10"
     guidetolerance="10"
     inkscape:pageopacity="0"
     inkscape:pageshadow="2"
     inkscape:window-width="1920"
     inkscape:window-height="998"
     id="namedview14"
     showgrid="false"
     inkscape:zoom="9.8333333"
     inkscape:cx="-7.016949"
     inkscape:cy="11.79661"
     inkscape:window-x="0"
     inkscape:window-y="0"
     inkscape:window-maximized="1"
     inkscape:current-layer="svg12" />
  <!-- Generator: Sketch 44.1 (41455) - http://www.bohemiancoding.com/sketch -->
  <title
     id="title2">img_upload</title>
  <desc
     id="desc4">Created with Sketch.</desc>
  <defs
     id="defs6" />
  <g
     transform="translate(-0.06513461,0.25861387)"
     id="g9">
    <g
       id="g6">
      <path
         style="fill:#727171"
         inkscape:connector-curvature="0"
         d="m 22.137,14.614 v -3 c -0.5,0 -1.078,0.016 -1.734,0.047 V 10.77 c 0.75,0.031 1.313,0.047 1.688,0.047 h 1.219 c 0.406,0 0.859,-0.016 1.359,-0.047 v 0.891 C 24.075,11.63 23.544,11.614 23.075,11.614 v 2.906 c 0.719,-0.094 1.344,-0.188 1.875,-0.281 -0.031,0.219 -0.047,0.5 -0.047,0.844 -1.094,0.125 -1.961,0.242 -2.602,0.352 -0.641,0.11 -1.227,0.242 -1.758,0.398 -0.125,-0.313 -0.281,-0.641 -0.469,-0.984 0.438,-0.032 1.125,-0.11 2.063,-0.235 z m 4.265,-7.64 h 4.453 c -0.031,0.313 -0.047,0.641 -0.047,0.984 0,0.313 0.016,0.641 0.047,0.984 H 29.871 V 7.63 H 21.433 V 8.989 H 20.449 C 20.48,8.708 20.496,8.38 20.496,8.005 20.496,7.63 20.48,7.286 20.449,6.974 h 4.828 C 25.183,6.536 25.058,6.146 24.902,5.802 25.246,5.739 25.558,5.646 25.84,5.521 c 0.187,0.406 0.375,0.89 0.562,1.453 z M 22.887,8.849 C 23.45,8.63 23.965,8.38 24.434,8.099 24.59,8.38 24.809,8.646 25.09,8.896 24.621,9.052 24.098,9.24 23.52,9.459 22.942,9.678 22.293,9.928 21.575,10.209 21.45,9.865 21.278,9.6 21.059,9.412 21.715,9.255 22.324,9.067 22.887,8.849 Z m 6.023,6.539 c 0.172,-0.141 0.32,-0.758 0.445,-1.852 h -2.203 c -0.469,0 -0.891,0.016 -1.266,0.047 0.219,-1.063 0.344,-1.828 0.375,-2.297 -0.375,0 -0.719,0.016 -1.031,0.047 v -0.891 c 0.281,0.031 0.734,0.047 1.359,0.047 h 2.625 c 0.688,0 1.188,-0.016 1.5,-0.047 v 0.891 c -0.344,-0.031 -0.844,-0.047 -1.5,-0.047 h -1.969 l -0.234,1.5 h 3.422 c -0.156,1.25 -0.297,2.141 -0.422,2.672 -0.125,0.531 -0.398,0.836 -0.82,0.914 -0.422,0.078 -0.867,0.148 -1.336,0.211 -0.063,-0.375 -0.25,-0.719 -0.563,-1.031 0.907,0.031 1.446,-0.024 1.618,-0.164 z M 26.684,8.802 c 0.156,-0.219 0.281,-0.453 0.375,-0.703 1.094,0.375 2.219,0.828 3.375,1.359 -0.156,0.188 -0.328,0.453 -0.516,0.797 -0.875,-0.5 -1.953,-0.984 -3.234,-1.453 z"
         id="path2-5" />
      <path
         style="fill:#727171"
         inkscape:connector-curvature="0"
         d="m 33.668,9.458 v 6.844 h -1.031 c 0.031,-0.594 0.047,-1.156 0.047,-1.688 V 9.692 c 0,-0.531 -0.016,-1.031 -0.047,-1.5 h 1.078 C 33.684,8.661 33.668,9.083 33.668,9.458 Z M 35.543,7.255 C 35.262,7.443 34.949,7.63 34.605,7.818 34.23,7.224 33.839,6.646 33.433,6.084 c 0.344,-0.188 0.656,-0.375 0.938,-0.563 0.375,0.593 0.766,1.171 1.172,1.734 z M 42.387,6.411 C 42.356,7.036 42.34,7.645 42.34,8.239 v 6.516 c 0,0.75 -0.203,1.188 -0.609,1.313 -0.406,0.125 -0.891,0.219 -1.453,0.281 -0.063,-0.344 -0.203,-0.703 -0.422,-1.078 0.625,0 1.031,-0.039 1.219,-0.117 0.188,-0.078 0.281,-0.273 0.281,-0.586 V 7.208 H 38.59 c -0.75,0 -1.422,0.047 -2.016,0.141 V 6.364 c 1.094,0.031 1.766,0.047 2.016,0.047 z"
         id="path4-9" />
    </g>
    <path
       style="fill:#727171"
       inkscape:connector-curvature="0"
       id="light-bulb-11-icon"
       d="m 13.101,18.026 3.41,-2.267 c -0.383,1.466 -0.367,1.677 -0.716,1.909 l -0.688,0.458 c -0.358,0.237 -0.561,0.132 -2.006,-0.1 z m 2.429,-3.792 -3.457,2.299 c -0.254,0.169 -0.323,0.512 -0.154,0.765 0.169,0.253 0.512,0.323 0.765,0.154 l 3.457,-2.299 c 0.254,-0.169 0.323,-0.512 0.154,-0.765 -0.168,-0.254 -0.511,-0.323 -0.765,-0.154 z M 13.602,3.782 c 1.872,2.815 0.743,6.011 1.718,8.413 0.182,0.449 0.045,0.961 -0.358,1.23 l -3.458,2.3 C 11.101,15.993 10.575,15.922 10.231,15.58 8.393,13.752 5.008,13.557 3.136,10.742 0.976,7.495 2.402,3.969 5.018,2.229 7.636,0.489 11.444,0.537 13.602,3.782 Z M 6.757,4.498 5.893,3.605 C 4.099,5.458 3.986,7.74 4.844,9.725 L 5.999,9.269 C 5.473,7.936 5.241,6.269 6.757,4.498 Z" />
  </g>
</svg>
